icons/image-outline.svg

<svg xmlns="http://www.w3.org/2000/svg" width="24" height="24" viewBox="0 0 24 24">
  <path d="M19,2 C20.6568542,2 22,3.34314575 22,5 L22,5 L22,19 C22,20.6568542 20.6568542,22 19,22 L19,22 L5,22 C3.34314575,22 2,20.6568542 2,19 L2,19 L2,5 C2,3.34314575 3.34314575,2 5,2 L5,2 Z M19,4 L5,4 C4.44771525,4 4,4.44771525 4,5 L4,5 L4,19 C4,19.5522847 4.44771525,20 5,20 L5,20 L19,20 C19.5522847,20 20,19.5522847 20,19 L20,19 L20,5 C20,4.44771525 19.5522847,4 19,4 L19,4 Z M9.29289322,10.7071068 C9.68341751,10.3165825 10.3165825,10.3165825 10.7071068,10.7071068 L10.7071068,10.7071068 L13.2928932,13.2928932 C13.6834175,13.6834175 14.3165825,13.6834175 14.7071068,13.2928932 L14.7071068,13.2928932 L15.2928932,12.7071068 C15.6834175,12.3165825 16.3165825,12.3165825 16.7071068,12.7071068 L16.7071068,12.7071068 L18,14 L18,17 C18,17.5522847 17.5522847,18 17,18 L17,18 L7,18 C6.44771525,18 6,17.5522847 6,17 L6,17 L6,14 Z M16,6 C17.1045695,6 18,6.8954305 18,8 C18,9.1045695 17.1045695,10 16,10 C14.8954305,10 14,9.1045695 14,8 C14,6.8954305 14.8954305,6 16,6 Z"/>
</svg>

<svg xmlns="http://www.w3.org/2000/svg" viewBox="0 0 24 24">
  <path d="M19 2a3 3 0 0 1 3 3v14a3 3 0 0 1-3 3H5a3 3 0 0 1-3-3V5a3 3 0 0 1 3-3zm0 2H5a1 1 0 0 0-1 1v14a1 1 0 0 0 1 1h14a1 1 0 0 0 1-1V5a1 1 0 0 0-1-1zm-9.7 6.7a1 1 0 0 1 1.4 0l2.6 2.6a1 1 0 0 0 1.4 0l.6-.6a1 1 0 0 1 1.4 0L18 14v3a1 1 0 0 1-1 1H7a1 1 0 0 1-1-1v-3zM16 6a2 2 0 1 1 0 4 2 2 0 0 1 0-4z"/>
</svg>
